X:61
T:Italian March. BC.61
M:C|
L:1/8
Q:120
S:Benjamin Cooke MS.circa 1770, F.Kidson Coll.
R:.March
O:England
A:Uncertain, probably northern
Z:vmp.John Bagnall
K:D
fg|a2 aa a2 d’a|b2 a2 a2 fg|a2 aa a2 ba|b2 a2 a2 fa|!
g2 AA A2 ((3efg)|((3fga) AA A2 f2|\
g2 ((3bge) f2 ((3afd)|a2 AA A2e/f/g/a/|!
“^NB”|b2 gf eb Bd|c2 ee e2 e/f/g/a/|b2 ((3agf) eb Bd|\
((3cBA) AA (A2 A2)|!
d2 dd d4|e2 ee e4|((3ac’a) ((3agf) e2 d2|\
((3caa) ((3gBd) ~c2 B2|!
((3caa) (3aBd ~c2 B2|((3cde) (3fed c2 B2|\
A2 ee e2 d2|c2 cc c2 B2|!
Aaec Abec|A2 AA A2 A2|A6:|!
|:z2|b2 ((3afd) ((3BGE) [C2E2]|((3agf) g2 ee e3 g|\
((3gec) GECA, ((3gfe)|f2 dd d3 A|!
((3AFA) G2 ((3GEF) F2|\
[A,2E2] [A,E][A,E] [A,E] A2|\
((3AFG) G2 ((3GEF) F2|E2 EE E2 G2|!
((3FdA) ((3Bge) d2 c2|d2 aa a2 g2|\
f2 ff f2 e2|!
dd’af dd’af|d2 dd d2 d2|d6:|
W:There may be 8 bars missing after Bar 8, intentions not clear
